X:1
T:Yoakley, 88.88.88
T:Yoakley, 88.88.88
T:William Yoakley (1822-?)
T:Public Domain Courtesy of the Cyber Hymnal™
C:William Yoakley (1822-?)
Z:Public Domain
Z:Courtesy of the Cyber Hymnal™
%%score ( 1 2 ) ( 3 4 )
L:1/8
Q:1/4=110
M:3/4
K:E
V:1 treble 
V:2 treble 
V:3 bass 
V:4 bass 
V:1
 (EF) | [B,G]4 ([EG][FA]) | ([GB]2 [EG]2) E2 | (F3 G) A2 | ([FA]2 [EG]2) ([B,E][EG]) | %5
 [GB]4 [Ac]2 | [GB]4 [EG]2 | [EG]4 [EF]2 | [DF]4 (EF) | [B,G]4 ([EG][FA]) | [GB]2 [EG]2 E2 | %11
 (F3 G) A2 | [FA]2 [EG]2 ([B,E][EG]) | [GB]4 [Ac]2 | [GB]4 [EG]2 | [EG]4 [EF]2 | [DF]4 [EG]2 | %17
 [EA]4 [EB]2 | [Ec]4 [EB]2 | (B2 G2) E2 | ([EG]2 [DF]2) [DB]2 | (e2 B2) (Be) | (e2 c2) [FA]2 | %23
 [EG]4 [DF]2 | E4 |] %25
V:2
 B,2 | x6 | x4 E2 | E4 (DF) | x6 | x6 | x6 | x6 | x4 B,2 | x6 | x4 E2 | E4 (DF) | x6 | x6 | x6 | %15
 x6 | x6 | x6 | x6 | B,4 E2 | x6 | E4 E2 | E4 x2 | x6 | E4 |] %25
V:3
 (G,A,) | [E,B,]4 (B,E) | (E2 B,2) [G,,B,]2 | ([A,,C]2 [B,,B,]2) [B,,B,]2 | [E,B,]4 (G,B,) | %5
 [E,E]4 [E,E]2 | [E,E]4 [E,B,]2 | [C,C]4 [F,^A,]2 | [B,,B,]4 (G,A,) | [E,B,]4 (B,E) | %10
 E2 B,2 [G,,B,]2 | ([A,,C]2 [B,,B,]2) [B,,B,]2 | [E,B,]4 (G,B,) | [E,E]4 [E,E]2 | [E,E]4 [E,B,]2 | %15
 [C,C]4 [F,^A,]2 | [B,,B,]4 [E,B,]2 | [C,A,]4 [E,G,]2 | A,4 [E,G,]2 | [D,F,]2 (E,F,) (G,^A,) | %20
 [B,,B,]4 B,2 | (B,2 E2) [G,B,]2 | (C2 E2) [A,,C]2 | [B,,B,]4 [B,,A,]2 | [E,G,]4 |] %25
V:4
 E,2 | x4 E,2 | E,4 x2 | x6 | x4 E,2 | x6 | x6 | x6 | x4 E,2 | x4 E,2 | E,4 x2 | x6 | x4 E,2 | x6 | %14
 x6 | x6 | x6 | x6 | A,4 x2 | x2 E,2 C,2 | x4 (B,A,) | G,4 x2 | A,4 x2 | x6 | x4 |] %25

